gtk/icons/scalable/actions/insert-object-symbolic.svg

<svg width='16' height='16'
     xmlns:gpa='https://www.gtk.org/grappa'
     gpa:version='1'
     gpa:keywords='insert object box arrow'
     gpa:state='0'>
  <path d='M 3 3.9920001 L 3 7.9920001 L 8 10.9919996 L 13 7.9920001 L 13 3.9920001 L 8 0.984000027 Z'
        id='path0'
        stroke-width='2'
        stroke-linecap='round'
        stroke-linejoin='round'
        stroke='rgb(0,0,0)'
        fill='none'
        class='foreground-stroke transparent-fill'/>
  <path d='M 3 4 L 8 7 L 13 4'
        id='path1'
        stroke-width='1'
        stroke-linecap='round'
        stroke-linejoin='round'
        stroke='rgb(0,0,0)'
        fill='none'
        class='foreground-stroke transparent-fill'/>
  <path d='M 5 13 L 8 15 L 11 13'
        id='path2'
        stroke-width='2'
        stroke-linecap='round'
        stroke-linejoin='round'
        stroke='rgb(0,0,0)'
        fill='none'
        class='foreground-stroke transparent-fill'/>
</svg>

<svg xmlns="http://www.w3.org/2000/svg" width="16" height="16" viewBox="0 0 16 16"><path fill="none" d="m5 13 3 2 3-2M3 4l5 3 5-3M3 3.992v4l5 3 5-3v-4L8 .984Z" class="foreground-stroke transparent-fill" style="fill:#000;fill-opacity:0;stroke:#241f31;stroke-width:2;stroke-linecap:round;stroke-linejoin:round;paint-order:stroke markers fill"/></svg>
